synthetix/synthetix-white.svg

<svg width="762" height="56" viewBox="0 0 762 56" fill="none" xmlns="http://www.w3.org/2000/svg">
<g clip-path="url(#clip0)">
<path d="M73.4916 26.2115C70.244 23.0376 66.3411 21.4514 61.7813 21.4514H16.5809C15.7414 21.4514 15.0212 21.1598 14.4188 20.5751C13.8164 19.9919 13.5159 19.2805 13.5159 18.441V14.7752C13.5159 13.974 13.8164 13.2803 14.4188 12.6956C15.0212 12.1124 15.7414 11.8193 16.5809 11.8193H74.8598C75.0056 11.8193 75.1235 11.7736 75.2148 11.6823C75.3061 11.5925 75.3517 11.4908 75.3517 11.3818V0.437423C75.3517 0.291616 75.3061 0.182628 75.2148 0.108988C75.1235 0.0368201 75.0042 0 74.8598 0H16.5809C11.9842 0 8.07098 1.58768 4.84259 4.76158C1.6142 7.93548 0 11.7648 0 16.2524V16.9638C0 21.4882 1.6142 25.3367 4.84259 28.5106C8.07098 31.6845 11.9842 33.2707 16.5809 33.2707H61.7813C62.584 33.2707 63.2865 33.5535 63.8874 34.119C64.4898 34.6846 64.7903 35.3871 64.7903 36.2266V39.8924C64.7903 40.7319 64.4898 41.4344 63.8874 42C63.285 42.5656 62.5825 42.8483 61.7813 42.8483H3.44784C3.33885 42.8483 3.23723 42.894 3.14739 42.9853C3.05607 43.0766 3.01042 43.1959 3.01042 43.3417V54.2861C3.01042 54.3951 3.05607 54.4968 3.14739 54.5866C3.2387 54.6779 3.33885 54.7236 3.44784 54.7236H61.7813C66.3411 54.7236 70.244 53.1285 73.4916 49.9355C76.7377 46.7439 78.3622 42.9043 78.3622 38.4167V37.7038C78.3607 33.2162 76.7377 29.3854 73.4916 26.2115Z" fill="white"/>
<path d="M171.622 0H158.981C158.872 0 158.77 0.0368201 158.68 0.108988C158.589 0.182628 158.543 0.291616 158.543 0.437423V14.3363C158.543 15.5396 157.922 16.4527 156.683 17.0728L131.457 27.5238L106.231 17.0728C104.991 16.4527 104.37 15.541 104.37 14.3363V0.437423C104.37 0.291616 104.334 0.182628 104.261 0.108988C104.186 0.0368201 104.077 0 103.932 0H91.2905C91.1815 0 91.0798 0.0368201 90.99 0.108988C90.8987 0.182628 90.853 0.291616 90.853 0.437423V16.3614C90.853 18.7341 91.5099 20.9035 92.8236 22.8727C94.1374 24.8433 95.9239 26.3014 98.1861 27.2499L124.672 38.3578V54.2287C124.672 54.3745 124.717 54.4938 124.809 54.5851C124.9 54.6764 125.018 54.7221 125.164 54.7221H137.805C137.914 54.7221 138.014 54.6764 138.105 54.5851C138.196 54.4938 138.242 54.376 138.242 54.2287V38.3592L164.728 27.3058C166.988 26.3205 168.778 24.8521 170.09 22.9007C171.404 20.9492 172.059 18.7886 172.059 16.4159V0.437423C172.059 0.291616 172.014 0.182628 171.922 0.108988C171.831 0.0368201 171.731 0 171.622 0Z" fill="white"/>
<path d="M265.516 0H252.875C252.729 0 252.619 0.045657 252.546 0.136971C252.473 0.228285 252.437 0.328436 252.437 0.437423V42.9014H247.129C246.144 42.9014 245.305 42.464 244.612 41.5876L220.098 5.74542C217.47 2.06193 213.84 0.145808 209.208 0H188.086C187.94 0 187.821 0.045657 187.73 0.136971C187.638 0.228285 187.593 0.328436 187.593 0.437423V54.2832C187.593 54.3922 187.638 54.4938 187.73 54.5837C187.821 54.675 187.939 54.7206 188.086 54.7206H200.727C200.836 54.7206 200.936 54.675 201.028 54.5837C201.119 54.4938 201.165 54.3922 201.165 54.2832V11.8193H206.473C207.458 11.8193 208.296 12.2758 208.99 13.1875L233.505 49.0297C236.132 52.7147 239.761 54.6117 244.394 54.7206H265.517C265.663 54.7206 265.772 54.675 265.846 54.5837C265.918 54.4938 265.955 54.3922 265.955 54.2832V0.437423C265.955 0.328436 265.918 0.228285 265.846 0.136971C265.771 0.045657 265.662 0 265.516 0Z" fill="white"/>
<path d="M356.882 0H279.45C279.305 0 279.194 0.045657 279.122 0.136971C279.048 0.228285 279.013 0.328436 279.013 0.437423V11.3818C279.013 11.4908 279.048 11.5925 279.122 11.6823C279.194 11.7736 279.305 11.8193 279.45 11.8193H311.407V54.2832C311.407 54.3922 311.443 54.4938 311.516 54.5837C311.589 54.675 311.699 54.7206 311.845 54.7206H324.486C324.632 54.7206 324.741 54.675 324.814 54.5837C324.887 54.4938 324.923 54.3922 324.923 54.2832V11.8193H356.88C357.026 11.8193 357.144 11.7736 357.235 11.6823C357.327 11.591 357.372 11.4908 357.372 11.3818V0.437423C357.372 0.328436 357.327 0.228285 357.235 0.136971C357.147 0.045657 357.028 0 356.882 0Z" fill="white"/>
<path d="M450.775 0H438.134C438.025 0 437.923 0.045657 437.833 0.136971C437.742 0.228285 437.696 0.328436 437.696 0.437423V21.45H386.476V0.437423C386.476 0.328436 386.431 0.228285 386.339 0.136971C386.248 0.0471298 386.129 0 385.985 0H373.343C373.234 0 373.133 0.045657 373.043 0.136971C372.952 0.228285 372.906 0.328436 372.906 0.437423V54.2832C372.906 54.3922 372.952 54.4938 373.043 54.5837C373.134 54.675 373.234 54.7206 373.343 54.7206H385.985C386.13 54.7206 386.248 54.675 386.339 54.5837C386.431 54.4924 386.476 54.3922 386.476 54.2832V33.2707H437.696V54.2832C437.696 54.3922 437.742 54.4938 437.833 54.5837C437.924 54.675 438.025 54.7206 438.134 54.7206H450.775C450.92 54.7206 451.038 54.675 451.13 54.5837C451.221 54.4924 451.267 54.3922 451.267 54.2832V0.437423C451.267 0.328436 451.219 0.228285 451.13 0.136971C451.038 0.045657 450.919 0 450.775 0Z" fill="white"/>
<path d="M544.333 0H482.991C478.429 0 474.527 1.58621 471.28 4.76011C468.033 7.93401 466.41 11.7648 466.41 16.2524V38.4137C466.41 42.9382 468.033 46.7866 471.28 49.9605C474.527 53.1344 478.429 54.7221 482.991 54.7221H544.333C544.442 54.7221 544.542 54.6764 544.634 54.5851C544.724 54.4938 544.771 54.3937 544.771 54.2847V43.3403C544.771 43.1945 544.725 43.0855 544.634 43.0118C544.542 42.9397 544.442 42.9028 544.333 42.9028H482.991C482.151 42.9028 481.44 42.6112 480.857 42.028C480.272 41.4448 479.98 40.7511 479.98 39.9484V33.2707H544.294C544.439 33.2707 544.548 33.225 544.622 33.1337C544.694 33.0424 544.731 32.9422 544.731 32.8333V21.8888C544.731 21.743 544.694 21.634 544.622 21.5604C544.548 21.4882 544.439 21.4514 544.294 21.4514H479.98V14.7752C479.98 13.9725 480.272 13.2803 480.857 12.6956C481.44 12.1124 482.151 11.8193 482.991 11.8193H544.333C544.442 11.8193 544.542 11.7736 544.634 11.6823C544.724 11.5925 544.771 11.4908 544.771 11.3818V0.437423C544.771 0.328436 544.725 0.228285 544.634 0.136971C544.542 0.0471298 544.442 0 544.333 0Z" fill="white"/>
<path d="M637.783 0H560.351C560.205 0 560.095 0.045657 560.023 0.136971C559.949 0.228285 559.914 0.328436 559.914 0.437423V11.3818C559.914 11.4908 559.949 11.5925 560.023 11.6823C560.095 11.7736 560.205 11.8193 560.351 11.8193H592.308V54.2832C592.308 54.3922 592.344 54.4938 592.417 54.5837C592.491 54.675 592.6 54.7206 592.746 54.7206H605.387C605.533 54.7206 605.642 54.675 605.715 54.5837C605.789 54.4938 605.824 54.3922 605.824 54.2832V11.8193H637.781C637.927 11.8193 638.045 11.7736 638.136 11.6823C638.227 11.591 638.273 11.4908 638.273 11.3818V0.437423C638.273 0.328436 638.227 0.228285 638.136 0.136971C638.046 0.045657 637.927 0 637.783 0Z" fill="white"/>
<path d="M667.214 0.108988C667.14 0.0368202 667.031 0 666.885 0H654.245C654.099 0 653.988 0.0368202 653.916 0.108988C653.843 0.182628 653.807 0.291616 653.807 0.437423V54.2832C653.807 54.3922 653.843 54.4938 653.916 54.5837C653.988 54.675 654.099 54.7206 654.245 54.7206H666.885C667.031 54.7206 667.14 54.675 667.214 54.5837C667.286 54.4924 667.323 54.3922 667.323 54.2832V0.437423C667.323 0.293088 667.286 0.182628 667.214 0.108988Z" fill="white"/>
<path d="M702.114 13.2982C701.566 12.6781 700.891 12.3674 700.088 12.3674H683.673C683.527 12.3674 683.408 12.3217 683.318 12.2304C683.226 12.1406 683.181 12.0389 683.181 11.9299V0.985519C683.181 0.876532 683.226 0.776381 683.318 0.685067C683.408 0.595226 683.527 0.548096 683.673 0.548096H701.019C705.396 0.548096 709.173 2.31841 712.347 5.85609L716.56 10.9446L708.352 20.8493L702.114 13.2982ZM732.428 5.8016C735.602 2.29926 739.396 0.548096 743.81 0.548096H761.102C761.248 0.548096 761.357 0.584916 761.431 0.657083C761.503 0.730724 761.54 0.839711 761.54 0.985519V11.9299C761.54 12.0389 761.503 12.1406 761.431 12.2304C761.357 12.3217 761.248 12.3674 761.102 12.3674H744.686C743.884 12.3674 743.209 12.6781 742.661 13.2982L730.568 27.8539L742.716 42.5187C743.264 43.1034 743.919 43.395 744.686 43.395H761.102C761.248 43.395 761.357 43.4406 761.431 43.532C761.503 43.6233 761.54 43.7426 761.54 43.8869V54.8313C761.54 54.9403 761.503 55.0419 761.431 55.1318C761.357 55.2231 761.248 55.2688 761.102 55.2688H743.811C739.397 55.2688 735.621 53.4999 732.484 49.9608L722.416 37.8131L712.347 49.9608C709.173 53.4999 705.379 55.2688 700.965 55.2688H683.673C683.527 55.2688 683.416 55.2231 683.344 55.1318C683.271 55.0405 683.235 54.9226 683.235 54.7754V43.8309C683.235 43.722 683.271 43.6218 683.344 43.5305C683.416 43.4392 683.527 43.3935 683.673 43.3935H700.088C700.854 43.3935 701.529 43.0842 702.114 42.4627L713.987 28.1264L732.428 5.8016Z" fill="white"/>
</g>
<defs>
<clipPath id="clip0">
<rect width="761.541" height="55.27" fill="white"/>
</clipPath>
</defs>
</svg>

<svg width="762" height="56" viewBox="0 0 762 56" fill="none" xmlns="http://www.w3.org/2000/svg"><g clip-path="url(#clip0)" fill="#fff"><path d="M73.492 26.212c-3.248-3.174-7.15-4.76-11.71-4.76H16.58c-.84 0-1.56-.292-2.162-.877a2.857 2.857 0 01-.903-2.134v-3.666c0-.801.3-1.495.903-2.08a3 3 0 012.162-.876h58.28a.48.48 0 00.355-.137.416.416 0 00.137-.3V.437c0-.145-.046-.254-.137-.328A.558.558 0 0074.86 0H16.58C11.985 0 8.072 1.588 4.844 4.762 1.614 7.935 0 11.765 0 16.252v.712c0 4.524 1.614 8.373 4.843 11.547 3.228 3.174 7.141 4.76 11.738 4.76h45.2c.803 0 1.505.282 2.106.848.603.566.903 1.268.903 2.108v3.665c0 .84-.3 1.542-.903 2.108-.602.566-1.304.848-2.106.848H3.448a.416.416 0 00-.3.137.483.483 0 00-.138.357v10.944c0 .11.046.21.137.3a.418.418 0 00.3.138h58.334c4.56 0 8.463-1.595 11.71-4.788 3.247-3.192 4.871-7.032 4.871-11.52v-.712c-.001-4.488-1.624-8.319-4.87-11.492zM171.622 0h-12.641a.473.473 0 00-.301.109c-.091.074-.137.183-.137.328v13.9c0 1.203-.621 2.116-1.86 2.736l-25.226 10.45-25.226-10.45c-1.24-.62-1.861-1.532-1.861-2.737V.437c0-.145-.036-.254-.109-.328-.075-.072-.184-.109-.329-.109H91.29a.472.472 0 00-.3.109c-.091.074-.137.183-.137.328v15.924c0 2.373.657 4.543 1.97 6.512 1.314 1.97 3.1 3.428 5.363 4.377l26.486 11.108v15.87a.48.48 0 00.137.357.479.479 0 00.355.137h12.641a.417.417 0 00.3-.137.482.482 0 00.137-.356v-15.87l26.486-11.053c2.26-.986 4.05-2.454 5.362-4.405 1.314-1.952 1.969-4.112 1.969-6.485V.437c0-.145-.045-.254-.137-.328a.473.473 0 00-.3-.109zm93.894 0h-12.641c-.146 0-.256.046-.329.137a.47.47 0 00-.109.3v42.464h-5.308c-.985 0-1.824-.437-2.517-1.313L220.098 5.745C217.47 2.062 213.84.145 209.208 0h-21.122a.481.481 0 00-.356.137.415.415 0 00-.137.3v53.846c0 .11.045.21.137.3a.48.48 0 00.356.138h12.641a.42.42 0 00.301-.137.417.417 0 00.137-.3V11.818h5.308c.985 0 1.823.457 2.517 1.368l24.515 35.843c2.627 3.685 6.256 5.582 10.889 5.69h21.123c.146 0 .255-.045.329-.136a.473.473 0 00.109-.3V.436a.476.476 0 00-.109-.3c-.075-.091-.184-.137-.33-.137zm91.366 0H279.45c-.145 0-.256.046-.328.137a.464.464 0 00-.109.3v10.945c0 .109.035.21.109.3.072.092.183.137.328.137h31.957v42.464c0 .11.036.21.109.3.073.092.183.138.329.138h12.641c.146 0 .255-.046.328-.137a.467.467 0 00.109-.3V11.818h31.957a.479.479 0 00.355-.137.415.415 0 00.137-.3V.437a.415.415 0 00-.137-.3.47.47 0 00-.353-.137zm93.893 0h-12.641a.417.417 0 00-.301.137.42.42 0 00-.137.3V21.45h-51.22V.437a.415.415 0 00-.137-.3.485.485 0 00-.354-.137h-12.642a.415.415 0 00-.3.137.42.42 0 00-.137.3v53.846c0 .11.046.21.137.3a.416.416 0 00.3.138h12.642a.478.478 0 00.354-.137.415.415 0 00.137-.3V33.27h51.22v21.012c0 .11.046.21.137.3a.419.419 0 00.301.138h12.641a.482.482 0 00.355-.137.42.42 0 00.137-.3V.436a.427.427 0 00-.137-.3.484.484 0 00-.355-.137zm93.558 0h-61.342c-4.562 0-8.464 1.586-11.711 4.76-3.247 3.174-4.87 7.005-4.87 11.492v22.162c0 4.524 1.623 8.373 4.87 11.547 3.247 3.173 7.149 4.761 11.711 4.761h61.342a.42.42 0 00.301-.137.423.423 0 00.137-.3V43.34c0-.146-.046-.255-.137-.328a.478.478 0 00-.301-.11h-61.342c-.84 0-1.551-.29-2.134-.874-.585-.583-.877-1.277-.877-2.08v-6.677h64.314c.145 0 .254-.046.328-.137a.476.476 0 00.109-.3V21.888c0-.146-.037-.255-.109-.329-.074-.072-.183-.109-.328-.109H479.98v-6.676c0-.803.292-1.495.877-2.08.583-.583 1.294-.876 2.134-.876h61.342a.42.42 0 00.301-.137.42.42 0 00.137-.3V.437a.42.42 0 00-.137-.3.426.426 0 00-.301-.137zm93.45 0h-77.432c-.146 0-.256.046-.328.137a.464.464 0 00-.109.3v10.945c0 .109.035.21.109.3.072.092.182.137.328.137h31.957v42.464c0 .11.036.21.109.3.074.092.183.138.329.138h12.641c.146 0 .255-.046.328-.137a.462.462 0 00.109-.3V11.818h31.957a.479.479 0 00.355-.137.42.42 0 00.137-.3V.437a.42.42 0 00-.137-.3.476.476 0 00-.353-.137zm29.431.109c-.074-.072-.183-.109-.329-.109h-12.64c-.146 0-.257.037-.329.109-.073.074-.109.183-.109.328v53.846c0 .11.036.21.109.3.072.092.183.138.329.138h12.64c.146 0 .255-.046.329-.137a.476.476 0 00.109-.3V.436c0-.144-.037-.254-.109-.328zm34.9 13.189c-.548-.62-1.223-.93-2.026-.93h-16.415a.477.477 0 01-.355-.138.413.413 0 01-.137-.3V.986c0-.11.045-.21.137-.3a.483.483 0 01.355-.138h17.346c4.377 0 8.154 1.77 11.328 5.308l4.213 5.089-8.208 9.904-6.238-7.55zm30.314-7.496c3.174-3.503 6.968-5.254 11.382-5.254h17.292c.146 0 .255.037.329.11.072.073.109.182.109.328V11.93c0 .109-.037.21-.109.3-.074.092-.183.137-.329.137h-16.416c-.802 0-1.477.311-2.025.931l-12.093 14.556 12.148 14.665c.548.584 1.203.876 1.97.876h16.416c.146 0 .255.046.329.137.072.091.109.21.109.355V54.83a.47.47 0 01-.109.3c-.074.092-.183.138-.329.138h-17.291c-4.414 0-8.19-1.77-11.327-5.308l-10.068-12.148-10.069 12.148c-3.174 3.539-6.968 5.308-11.382 5.308h-17.292c-.146 0-.257-.046-.329-.137a.551.551 0 01-.109-.357V43.831a.47.47 0 01.109-.3c.072-.092.183-.137.329-.137h16.415c.766 0 1.441-.31 2.026-.931l11.873-14.337 18.441-22.324z"/></g><defs><clipPath id="clip0"><path fill="#fff" d="M0 0h761.541v55.27H0z"/></clipPath></defs></svg>
